X:1
T:Star of the East -- Hornpipe
R:hornpipe
B:Cole's 1000 Fiddle Tunes
M:C|
L:1/8
K:Bb
(uD>.E)|vF>Bd>c B>AG>F|E>Gc>d e>dc>B|\
A>cb>g ((3fgf) ((3efe)|((3ded) ((3cdc) B>AG>F|
D>Fd>c B>AG>F|E>Gc>d e>dc>B|\
A>ca>g ((3fgf) ((3edc)|B2b2B2:|
|:((3ufga)|k[b2d2]D>F B>df>b|k[g2B2]E>G B>eg>b|\
k[f2A2]C>E A>ce>f|k[d2F2]B,>D F>Ad>f|
k[b2d2]D>F B>df>b|k[g2B2]E>G B>eg>b|\
a>gf>=e _e>Ad>c|B2b2B2:|
